boxicons/svg/regular/bx-folder-plus.svg

<svg xmlns="http://www.w3.org/2000/svg" width="24" height="24" viewBox="0 0 24 24"><path d="M13 9h-2v3H8v2h3v3h2v-3h3v-2h-3z"/><path d="M20 5h-8.586L9.707 3.293A.996.996 0 0 0 9 3H4c-1.103 0-2 .897-2 2v14c0 1.103.897 2 2 2h16c1.103 0 2-.897 2-2V7c0-1.103-.897-2-2-2zM4 19V7h16l.002 12H4z"/></svg>

<svg xmlns="http://www.w3.org/2000/svg" width="24" height="24" viewBox="0 0 24 24"><path d="M13 9L11 9 11 12 8 12 8 14 11 14 11 17 13 17 13 14 16 14 16 12 13 12z"/><path d="M20,5h-8.586L9.707,3.293C9.52,3.105,9.266,3,9,3H4C2.897,3,2,3.897,2,5v14c0,1.103,0.897,2,2,2h16c1.103,0,2-0.897,2-2V7 C22,5.897,21.103,5,20,5z M4,19V7h7h1h8l0.002,12H4z"/></svg>
